X: 6887
T: Chasing Daylight
R: reel
M: 4/4
K: Bminor
ABBA f3e|dBBA B2AG|GAAG Afed|e3d efdc|
ABBA f3e|dBBA B2AG|GAAG Afed|e4- efdc:|
|:B3B- Bdde|f3f- ffed|B3B- Bdde|f2a2 ab f/e/d|
B3B- Bdde|f3f- ffed|edfc- cdB2-|BAAB Bddc:|

